ui/public/images/oauth2/facebook.svg

<?xml version="1.0" encoding="UTF-8"?>
<svg width="256px" height="256px" viewBox="0 0 256 256" version="1.1" xmlns="http://www.w3.org/2000/svg" preserveAspectRatio="xMidYMid">
    <title>Facebook</title>
    <g>
        <path d="M256,128 C256,57.3075 198.6925,0 128,0 C57.3075,0 0,57.3075 0,128 C0,191.8885 46.80775,244.8425 108,254.445 L108,165 L75.5,165 L75.5,128 L108,128 L108,99.8 C108,67.72 127.1095,50 156.3475,50 C170.35175,50 185,52.5 185,52.5 L185,84 L168.8595,84 C152.95875,84 148,93.86675 148,103.98925 L148,128 L183.5,128 L177.825,165 L148,165 L148,254.445 C209.19225,244.8425 256,191.8885 256,128" fill="#1877F2"></path>
        <path d="M177.825,165 L183.5,128 L148,128 L148,103.98925 C148,93.86675 152.95875,84 168.8595,84 L185,84 L185,52.5 C185,52.5 170.35175,50 156.3475,50 C127.1095,50 108,67.72 108,99.8 L108,128 L75.5,128 L75.5,165 L108,165 L108,254.445 C114.51675,255.4675 121.196,256 128,256 C134.804,256 141.48325,255.4675 148,254.445 L148,165 L177.825,165" fill="#FFFFFF"></path>
    </g>
</svg>

<svg xmlns="http://www.w3.org/2000/svg" width="256" height="256" preserveAspectRatio="xMidYMid"><path fill="#1877f2" d="M256 128a128 128 0 1 0-148 126.4V165H75.5v-37H108V99.8c0-32 19.1-49.8 48.3-49.8 14 0 28.7 2.5 28.7 2.5V84h-16.1c-16 0-20.9 9.9-20.9 20v24h35.5l-5.7 37H148v89.4A128 128 0 0 0 256 128"/><path fill="#fff" d="m177.8 165 5.7-37H148v-24c0-10.1 5-20 20.9-20H185V52.5S170.4 50 156.3 50C127.1 50 108 67.7 108 99.8V128H75.5v37H108v89.4a129 129 0 0 0 40 0V165z"/></svg>
